T: Would The Minister Not Dance?
M: 9/8
L: 1/8
K: Amix
|: a2 f ece ece | a2 f ece f2 e | a2 f ece ecA | c2 B Bce f2 e :||: A2 e ece ecA | c2 e ece f2 e | [1 A2 e ece ecA | c2 B Bce f2 e :|
